!!!COM: Bach, Johann Sebastian
!!!OPR: Inventio
!!!OTL: Inventio 1
!!!XEN: Two-part Inventions [for keyboard]
!!!ONM: No. 1
!!!ONB: In C major.
!!!SCT: BWV 772
!!!YEC: Copyright 1994, David Huron
!!!YEM: Rights to all derivative electronic formats reserved.
!! Performance duration: 1:29; performance tempo: 59.3 quarter-notes per minute.
!! (Andras Schiff, piano, "Two-Part Inventions BWV 772a-786; Three-part
!! Inventions BWV 787-801" Decca 411 974-2)
**kern
*staff2
*clefF4
*k[]
*C:
*M4/4
*MM59.3
=1-
2r
.
.
.
.
.
.
.
16r
16C
16D
16E
16F
16D
16E
16C
=2
8G
.
8GG
.
4r
.
.
.
16r
16G
16A
16B
16c
16A
16B
16G
=3
8c
.
8B
.
8c
.
8d
.
8e
.
8G
.
8A
.
8B
.
=4
8c
.
8E
.
8F#
.
8G
.
8A
.
8B
.
[4c
.
.
.
=5
16c]
16D
16E
16F#
16G
16E
16F#
16D
8G
.
8BB
.
8C
.
8D
.
=6
8E
.
8F#
.
8G
.
8E
.
8.BB
.
.
.
16C
8D
8DD
.
=7
16r
16GG
16AA
16BB
16C
16AA
16BB
16GG
8D
.
8G
.
8F#
.
8G
.
=8
16A
16D
16E
16F#
16G
16E
16F#
16D
8A
.
8d
.
8c
.
8d
.
=9
16G
16g
16f
16e
16d
16f
16e
16g
8f
.
8e
.
8f
.
8d
.
=10
16e
16a
16g
16f
16e
16g
16f
16a
8g
.
8f
.
8g
.
8e
.
=11
16f
16b-
16a
16g
16f
16a
16g
16b-
16a
16g
16f
16e
16d
16f
16e
16g
=12
16f
16e
16d
16c
16B
16d
16c
16e
16d
16c
16B
16A
16G#
16B
16A
16c
=13
8B
.
8E
.
8.dW
.
.
16e
16c
16B
16A
16Gn
16F#
16A
16G#
16B
=14
16A
16c
16B
16d
16c
16e
16d
16f
8e
.
8A
.
8e
8E
.
=15
8A
.
8AA
.
4r
.
.
.
16r
16e
16d
16c
16B
16d
16c#
16e
=16
[2d
.
.
.
.
.
.
.
16d]
16A
16B
16c
16d
16B
16c
16A
=17
[2B
.
.
.
.
.
.
.
16B]
16d
16c
16B
16A
16c
16B
16d
=18
[2c
.
.
.
.
.
.
.
16c]
16G
16A
16B-
16c
16A
16B-
16G
=19
8A
.
8B-
.
8A
.
8G
.
8F
.
8d
.
8c
.
8B-
.
=20
8A
.
8f
.
8e
.
8d
.
16e
16D
16E
16F
16G
16E
16F
16D
=21
8E
.
8C
.
8D
.
8E
.
16F
16D
16E
16F
8G
.
8GG
.
=22
1CC; 1C;
==|!
*-
!!!CDT: 1685/3//-1750/7/28
!!!OCY: Deutschland
!!!AGN: polyphony
!!!AST: baroque
!!!AMT: simple quadruple
!!!SCA: Bach-Werke-Verzeichnis
!!!YOR: Bach Gesellschaft
!!!AIN: cemb; clavi
!!!EEV: 1.0
!!!RDT: 1986 November
!!!YER: 1995 May 22
!!!YEN: Canada
!!!EFL: 1/15
!!!EED: David Huron
